X: 21
M:9/8
L:1/8
K:D
uA|vFG"4"A D2B AFD|FG"4"A D2=c (uB2.A)|FG"4"A D2 B AFD|=cBc E2F (uG2"4"A)|
uA|vdcd D2B AFD|dcd A2g (f2e)|dcd D2B AFD|=cBc E2F (uG2"4".A)|
dcd D2B AFD|dcd A2g gfe|def efd cBA|BdB AGA B2:|


